X:1
T:Etude 5, Op 176
T:Etude 5, Op 176
T:Jean-Baptiste Duvernoy c. 1802 – c. 1880 
%%score { 1 | 2 }
L:1/8
Q:1/4=100
M:4/4
K:G
V:1 treble nm="Piano"
V:2 bass 
V:1
!p!"^Allegro moderato"!<(! (GABA GABG) | (ABcB ABcA)!<)! |!>(! (Bcdc BcdB) | (ABcB ABcA)!>)! | %4
!p!!<(! (GABA GABG)!<)! |!<(! (ABcB ABcA)!<)! |!>(! (Bcdc BcdB) | (ABcB ABcA)!>)! | %8
!<(! (GABA GABA) | (GABc defg)!<)! |!>(! (efgf efgf) | (edcB AGFE)!>)! | %12
!<(! (DEFG!<)!!>(! AGFE)!>)! | (DEFG ABcA) |!<(! (Bcde fgab)!<)! |!>(! (agfe dcBA)!>)! | %16
 (Bcde fgab) | (agfe dcBA) | (GABc defg) |!<(! (defg abc'd') |!f! (gabc' d'e'f'g')!<)! | z8 |] %22
V:2
 [B,D]8 | [F,D]8 | [G,D]8 | [CD]8 | [B,D]8 | [F,D]8 | [G,D]8 | [CD]8 | (B,CDC B,CDC) | (B,4 G,4) | %10
 (CDED CDED) | C4 z4 | (F,G,A,B, CB,A,G,) | (F,4 D4) | (G,4 D4 | D,4 D4) | (G,4 D4 | D,4 D4) | %18
 ([G,B,]4 D4) | ([G,B,]4 D4) | ([G,B,]4 D4) | [G,B,]4 z4 |] %22

